;FLAVOR:Marlin
;TIME:6194
;Filament used: 4.56627m
;Layer height: 0.2
;MINX:71.711
;MINY:45.573
;MINZ:0.2
;MAXX:148.287
;MAXY:155.614
;MAXZ:8.2
;TARGET_MACHINE.NAME:Creality Ender-3 Pro
;Generated with Cura_SteamEngine 5.9.0
M82 ;absolute extrusion mode
; Ender 3 Custom Start G-code
G92 E0 ; Reset Extruder
G28 ; Home all axes
G1 Z5.0 F3000 ; Move Z Axis up a bit during heating to not damage bed
M104 S175 ; Start heating up the nozzle most of the way
M190 S60 ; Start heating the bed, wait until target temperature reached
M109 S205.0 ; Finish heating the nozzle
G1 Z2.0 F3000 ; Move Z Axis up little to prevent scratching of Heat Bed
G1 X0.1 Y20 Z0.3 F5000.0 ; Move to start position
G1 X0.1 Y200.0 Z0.3 F1500.0 E15 ; Draw the first line
G1 X0.4 Y200.0 Z0.3 F5000.0 ; Move to side a little
G1 X0.4 Y20 Z0.3 F1500.0 E30 ; Draw the second line
G92 E0 ; Reset Extruder
G1 Z2.0 F3000 ; Move Z Axis up little to prevent scratching of Heat Bed
G1 X5 Y20 Z0.3 F5000.0 ; Move over to prevent blob squish
G92 E0
G92 E0
G1 F1500 E-6.5
;LAYER_COUNT:41
;LAYER:0
M107
G0 F6000 X72.14 Y68.207 Z0.2
;TYPE:SKIRT
G1 F1500 E0
G1 F1200 X72.295 Y67.441 E0.02599
G1 X72.451 Y66.741 E0.04985
G1 X72.602 Y66.153 E0.07004
G1 X72.877 Y65.208 E0.10277
G1 X73.089 Y64.549 E0.1258
G1 X73.258 Y64.065 E0.14285
G1 X73.535 Y63.342 E0.1686
G1 X73.841 Y62.599 E0.19533
G1 X74.06 Y62.103 E0.21336
G1 X74.393 Y61.405 E0.23908
G1 X74.721 Y60.759 E0.26318
G1 X74.998 Y60.249 E0.28248
G1 X75.407 Y59.548 E0.30948
G1 X75.756 Y58.978 E0.33171
G1 X76.101 Y58.453 E0.3526
G1 X76.638 Y57.689 E0.38366
G1 X76.973 Y57.235 E0.40243
G1 X77.28 Y56.839 E0.41909
G1 X77.89 Y56.098 E0.45101
G1 X78.352 Y55.566 E0.47445
G1 X78.751 Y55.132 E0.49406
G1 X79.384 Y54.487 E0.52411
G1 X79.837 Y54.048 E0.5451
G1 X80.296 Y53.628 E0.56579
G1 X80.985 Y53.039 E0.59594
G1 X81.572 Y52.561 E0.62112
G1 X82.008 Y52.223 E0.63946
G1 X82.575 Y51.813 E0.66274
G1 X83.142 Y51.418 E0.68572
G1 X83.642 Y51.092 E0.70557
G1 X84.479 Y50.583 E0.73815
G1 X85.026 Y50.27 E0.75912
G1 X85.529 Y49.999 E0.77812
G1 X86.356 Y49.587 E0.80885
G1 X86.916 Y49.324 E0.82943
G1 X87.405 Y49.111 E0.84717
G1 X88.216 Y48.784 E0.87625
G1 X88.816 Y48.559 E0.89756
G1 X89.285 Y48.396 E0.91408
G1 X89.892 Y48.201 E0.93528
G1 X90.854 Y47.921 E0.96861
G1 X91.44 Y47.774 E0.9887
G1 X92.107 Y47.624 E1.01144
G1 X93.267 Y47.4 E1.05074
G1 X93.86 Y47.303 E1.07072
G1 X96.424 Y46.845 E1.15735
G1 X98.902 Y46.33 E1.24153
G1 X100.988 Y45.848 E1.31274
G1 X101.964 Y45.67 E1.34574
G1 X102.93 Y45.581 E1.378
G1 X103.785 Y45.573 E1.40644
G1 X104.756 Y45.602 E1.43875
G1 X107.409 Y45.646 E1.527
G1 X109.447 Y45.627 E1.59479
G1 X110.989 Y45.597 E1.64608
G1 X111.967 Y45.625 E1.67863
G1 X113.064 Y45.759 E1.71538
G1 X114.548 Y46.018 E1.76549
G1 X117.086 Y46.423 E1.85097
G1 X119.611 Y46.754 E1.93567
G1 X122.109 Y47.009 E2.01919
G1 X123.946 Y47.16 E2.08049
G1 X124.531 Y47.226 E2.10007
G1 X125.509 Y47.362 E2.13291
G1 X126.139 Y47.468 E2.15416
G1 X127.34 Y47.717 E2.19496
G1 X127.971 Y47.874 E2.21658
G1 X128.716 Y48.081 E2.2423
G1 X129.297 Y48.26 E2.26252
G1 X130.12 Y48.539 E2.29142
G1 X130.642 Y48.73 E2.30991
G1 X131.403 Y49.034 E2.33717
G1 X131.985 Y49.286 E2.35826
G1 X132.855 Y49.694 E2.39022
G1 X133.539 Y50.041 E2.41573
G1 X134.566 Y50.615 E2.45486
G1 X135.111 Y50.947 E2.47609
G1 X135.952 Y51.493 E2.50944
G1 X136.484 Y51.863 E2.53099
G1 X137.105 Y52.323 E2.5567
G1 X137.511 Y52.639 E2.57381
G1 X138.15 Y53.162 E2.60127
G1 X138.674 Y53.621 E2.62444
G1 X139.458 Y54.353 E2.66012
G1 X139.941 Y54.834 E2.68279
G1 X140.575 Y55.506 E2.71352
G1 X141.004 Y55.993 E2.7351
G1 X141.549 Y56.648 E2.76344
G1 X141.962 Y57.173 E2.78566
G1 X142.773 Y58.296 E2.83173
G1 X143.146 Y58.857 E2.85414
G1 X143.622 Y59.627 E2.88425
G1 X143.935 Y60.167 E2.90501
G1 X144.371 Y60.972 E2.93546
G1 X144.672 Y61.575 E2.95787
G1 X145.075 Y62.446 E2.98979
G1 X145.307 Y62.987 E3.00937
G1 X145.589 Y63.705 E3.03503
G1 X145.823 Y64.345 E3.05769
G1 X146.183 Y65.462 E3.09673
G1 X146.347 Y66.037 E3.11661
G1 X146.571 Y66.918 E3.14685
G1 X146.716 Y67.58 E3.16939
G1 X146.898 Y68.552 E3.20228
G1 X146.994 Y69.161 E3.22278
G1 X147.091 Y69.923 E3.24833
G1 X147.16 Y70.598 E3.2709
G1 X147.232 Y71.725 E3.30846
G1 X147.249 Y72.271 E3.32663
G1 X147.254 Y73.119 E3.35483
G1 X147.239 Y73.713 E3.3746
G1 X147.17 Y74.971 E3.4165
G1 X146.939 Y78.001 E3.51757
G1 X146.825 Y80.506 E3.60098
G1 X146.781 Y83.021 E3.68464
G1 X146.808 Y85.506 E3.76729
G1 X146.908 Y88.035 E3.85147
G1 X147.078 Y90.57 E3.93598
G1 X147.313 Y93.016 E4.01771
G1 X147.634 Y95.588 E4.10392
G1 X148.151 Y99.01 E4.21902
G1 X148.269 Y100.36 E4.2641
G1 X148.287 Y101.116 E4.28925
G1 X148.278 Y101.855 E4.31383
G1 X148.233 Y102.595 E4.33849
G1 X148.185 Y103.124 E4.35615
G1 X148.085 Y103.896 E4.38204
G1 X147.574 Y106.953 E4.48513
G1 X147.226 Y109.464 E4.56945
G1 X146.946 Y112 E4.65431
G1 X146.738 Y114.516 E4.73827
G1 X146.609 Y116.963 E4.81978
G1 X146.544 Y119.532 E4.90525
G1 X146.553 Y122.019 E4.98797
G1 X146.632 Y124.537 E5.07176
G1 X146.885 Y128.55 E5.20549
G1 X146.914 Y129.402 E5.23385
G1 X146.914 Y130.32 E5.26438
G1 X146.899 Y130.807 E5.28059
G1 X146.843 Y131.751 E5.31204
G1 X146.779 Y132.465 E5.33588
G1 X146.68 Y133.328 E5.36477
G1 X146.609 Y133.818 E5.38124
G1 X146.48 Y134.551 E5.406
G1 X146.288 Y135.481 E5.43758
G1 X146.051 Y136.459 E5.47105
G1 X145.934 Y136.887 E5.48581
G1 X145.708 Y137.63 E5.51164
G1 X145.384 Y138.584 E5.54515
G1 X144.956 Y139.698 E5.58484
G1 X144.645 Y140.409 E5.61065
G1 X144.246 Y141.252 E5.64167
G1 X143.992 Y141.756 E5.66044
G1 X143.677 Y142.341 E5.68254
G1 X143.133 Y143.277 E5.71855
G1 X142.898 Y143.655 E5.73335
G1 X142.462 Y144.315 E5.75966
G1 X141.866 Y145.153 E5.79387
G1 X141.363 Y145.811 E5.82141
G1 X140.807 Y146.493 E5.85068
G1 X140.014 Y147.385 E5.89038
G1 X139.607 Y147.811 E5.90997
G1 X138.979 Y148.433 E5.93937
G1 X138.6 Y148.789 E5.95666
G1 X137.842 Y149.461 E5.99036
G1 X137.294 Y149.916 E6.01405
G1 X136.914 Y150.216 E6.03015
G1 X136.188 Y150.756 E6.06024
G1 X135.603 Y151.165 E6.08398
G1 X135.154 Y151.464 E6.10193
G1 X134.166 Y152.072 E6.14051
G1 X133.53 Y152.433 E6.16484
G1 X132.964 Y152.734 E6.18616
G1 X132.157 Y153.131 E6.21607
G1 X131.643 Y153.366 E6.23487
G1 X130.833 Y153.711 E6.26415
G1 X130.249 Y153.94 E6.28501
G1 X129.433 Y154.234 E6.31386
G1 X128.652 Y154.49 E6.3412
G1 X127.798 Y154.734 E6.37074
G1 X127.285 Y154.863 E6.38833
G1 X126.41 Y155.062 E6.41818
G1 X125.586 Y155.223 E6.4461
G1 X124.493 Y155.388 E6.48287
G1 X124.071 Y155.439 E6.49701
G1 X123.024 Y155.541 E6.53199
G1 X122.582 Y155.572 E6.54673
G1 X121.996 Y155.595 E6.56624
G1 X121.169 Y155.605 E6.59375
G1 X120.035 Y155.602 E6.63146
G1 X117.851 Y155.614 E6.7041
G1 X117.507 Y155.601 E6.71555
G1 X103.614 Y155.607 E7.17764
G1 X102.382 Y155.591 E7.21862
G1 X100.998 Y155.522 E7.26471
G1 X100.4 Y155.471 E7.28467
G1 X99.806 Y155.403 E7.30455
G1 X98.809 Y155.263 E7.33804
G1 X98.261 Y155.171 E7.35652
G1 X97.381 Y154.992 E7.38639
G1 X96.764 Y154.849 E7.40745
G1 X96.195 Y154.701 E7.42701
G1 X95.141 Y154.389 E7.46357
G1 X94.435 Y154.157 E7.48829
G1 X93.97 Y153.992 E7.5047
G1 X93.313 Y153.736 E7.52815
G1 X92.677 Y153.472 E7.55105
G1 X92.128 Y153.224 E7.57109
G1 X91.149 Y152.747 E7.60731
G1 X90.628 Y152.474 E7.62687
G1 X90.125 Y152.194 E7.64602
G1 X89.616 Y151.892 E7.6657
G1 X88.757 Y151.354 E7.69942
G1 X88.256 Y151.016 E7.71952
G1 X87.546 Y150.504 E7.74863
G1 X86.533 Y149.729 E7.79105
G1 X81.908 Y146.004 E7.98857
G1 X80.557 Y144.872 E8.04719
G1 X79.87 Y144.26 E8.07779
G1 X79.482 Y143.89 E8.09563
G1 X78.972 Y143.377 E8.11969
G1 X78.522 Y142.903 E8.14142
G1 X78.111 Y142.443 E8.16194
G1 X77.496 Y141.713 E8.19369
G1 X77.121 Y141.242 E8.21371
G1 X76.829 Y140.856 E8.22981
G1 X76.342 Y140.18 E8.25752
G1 X75.947 Y139.601 E8.28083
G1 X75.614 Y139.081 E8.30137
G1 X75.146 Y138.293 E8.33185
G1 X74.799 Y137.673 E8.35549
G1 X74.531 Y137.163 E8.37465
G1 X74.207 Y136.495 E8.39934
G1 X73.923 Y135.879 E8.4219
G1 X73.721 Y135.412 E8.43883
G1 X73.397 Y134.592 E8.46815
G1 X73.158 Y133.941 E8.49122
G1 X72.97 Y133.38 E8.5109
G1 X72.7 Y132.48 E8.54215
G1 X72.428 Y131.445 E8.57774
G1 X72.24 Y130.584 E8.60705
G1 X72.09 Y129.793 E8.63383
G1 X72.001 Y129.247 E8.65223
G1 X71.908 Y128.539 E8.67598
G1 X71.833 Y127.862 E8.69863
G1 X71.783 Y127.26 E8.71873
G1 X71.746 Y126.438 E8.74609
G1 X71.711 Y124.515 E8.81006
G1 X71.714 Y73.615 E10.503
G1 X71.754 Y71.73 E10.56571
G1 X71.793 Y70.941 E10.59199
G1 X71.838 Y70.412 E10.60965
G1 X71.941 Y69.502 E10.64011
G1 X72.047 Y68.762 E10.66497
G1 X72.14 Y68.207 E10.68369
G0 F6000 X72.685 Y67.528
G1 F1200 X72.839 Y66.84 E10.70714
G1 X72.986 Y66.265 E10.72688
G1 X73.258 Y65.33 E10.75926
G1 X73.467 Y64.68 E10.78197
G1 X73.631 Y64.208 E10.79859
G1 X73.905 Y63.494 E10.82403
G1 X74.207 Y62.76 E10.85043
G1 X74.421 Y62.275 E10.86806
G1 X74.75 Y61.586 E10.89345
G1 X75.072 Y60.95 E10.91716
G1 X75.344 Y60.45 E10.93609
G1 X75.748 Y59.757 E10.96277
G1 X76.091 Y59.197 E10.98462
G1 X76.428 Y58.683 E11.00506
G1 X76.96 Y57.926 E11.03583
G1 X77.289 Y57.48 E11.05427
G1 X77.589 Y57.093 E11.07055
G1 X78.192 Y56.36 E11.10212
G1 X78.646 Y55.837 E11.12516
G1 X79.037 Y55.412 E11.14436
G1 X79.663 Y54.774 E11.17409
G1 X80.107 Y54.343 E11.19467
G1 X80.556 Y53.932 E11.21492
G1 X81.237 Y53.349 E11.24474
G1 X81.817 Y52.877 E11.26961
G1 X82.243 Y52.547 E11.28753
G1 X82.804 Y52.141 E11.31056
G1 X83.361 Y51.753 E11.33314
G1 X83.85 Y51.434 E11.35256
G1 X84.678 Y50.93 E11.3848
G1 X85.216 Y50.622 E11.40542
G1 X85.708 Y50.357 E11.424
G1 X86.526 Y49.949 E11.45441
G1 X87.076 Y49.691 E11.47461
G1 X87.555 Y49.482 E11.492
G1 X88.356 Y49.159 E11.52072
G1 X88.948 Y48.937 E11.54175
G1 X89.407 Y48.777 E11.55792
G1 X90.004 Y48.585 E11.57878
G1 X90.952 Y48.309 E11.61162
G1 X91.528 Y48.164 E11.63137
G1 X92.183 Y48.017 E11.6537
G1 X93.332 Y47.795 E11.69262
G1 X93.925 Y47.698 E11.71261
G1 X96.504 Y47.237 E11.79974
G1 X98.983 Y46.722 E11.88396
G1 X101.078 Y46.238 E11.95547
G1 X102.001 Y46.068 E11.98669
G1 X102.934 Y45.981 E12.01785
G1 X103.773 Y45.973 E12.04576
G1 X104.744 Y46.002 E12.07807
G1 X107.406 Y46.046 E12.16662
G1 X109.455 Y46.027 E12.23477
G1 X110.978 Y45.997 E12.28544
G1 X111.919 Y46.022 E12.31675
G1 X112.995 Y46.153 E12.3528
G1 X114.485 Y46.413 E12.40311
G1 X117.034 Y46.82 E12.48896
G1 X119.559 Y47.151 E12.57366
G1 X122.076 Y47.408 E12.65781
G1 X123.902 Y47.558 E12.71875
G1 X124.476 Y47.622 E12.73796
G1 X125.442 Y47.756 E12.7704
G1 X126.058 Y47.86 E12.79117
G1 X127.243 Y48.105 E12.83142
G1 X127.864 Y48.26 E12.85271
G1 X128.598 Y48.463 E12.87804
G1 X129.169 Y48.639 E12.89791
G1 X129.983 Y48.915 E12.9265
G1 X130.494 Y49.102 E12.9446
G1 X131.244 Y49.401 E12.97145
G1 X131.815 Y49.648 E12.99214
G1 X132.674 Y50.051 E13.0237
G1 X133.344 Y50.39 E13.04868
G1 X134.358 Y50.957 E13.08732
G1 X134.893 Y51.283 E13.10815
G1 X135.724 Y51.822 E13.1411
G1 X136.246 Y52.184 E13.16223
G1 X136.86 Y52.639 E13.18764
G1 X137.258 Y52.948 E13.2044
G1 X137.887 Y53.463 E13.23144
G1 X138.401 Y53.913 E13.25416
G1 X139.176 Y54.636 E13.28941
G1 X139.65 Y55.108 E13.31166
G1 X140.275 Y55.771 E13.34197
G1 X140.697 Y56.249 E13.36318
G1 X141.235 Y56.895 E13.39114
G1 X141.638 Y57.407 E13.41281
G1 X142.44 Y58.518 E13.45838
G1 X142.806 Y59.068 E13.48036
G1 X143.276 Y59.827 E13.51005
G1 X143.583 Y60.357 E13.53042
G1 X144.013 Y61.151 E13.56045
G1 X144.309 Y61.743 E13.58247
G1 X144.707 Y62.604 E13.61402
G1 X144.939 Y63.145 E13.63359
G1 X145.213 Y63.842 E13.6585
G1 X145.442 Y64.468 E13.68067
G1 X145.798 Y65.572 E13.71925
G1 X145.959 Y66.136 E13.73876
G1 X146.18 Y67.004 E13.76855
G1 X146.323 Y67.654 E13.79069
G1 X146.503 Y68.614 E13.82318
G1 X146.597 Y69.212 E13.84331
G1 X146.693 Y69.964 E13.86852
G1 X146.761 Y70.623 E13.89056
G1 X146.832 Y71.738 E13.92772
G1 X146.849 Y72.273 E13.94552
G1 X146.854 Y73.109 E13.97333
G1 X146.84 Y73.691 E13.99269
G1 X146.771 Y74.941 E14.03433
G1 X146.54 Y77.971 E14.1354
G1 X146.425 Y80.488 E14.2192
G1 X146.381 Y83.014 E14.30323
G1 X146.408 Y85.522 E14.38665
G1 X146.508 Y88.051 E14.47083
G1 X146.68 Y90.608 E14.55607
G1 X146.916 Y93.065 E14.63817
G1 X147.238 Y95.648 E14.72474
G1 X147.755 Y99.07 E14.83985
G1 X147.869 Y100.37 E14.88326
G1 X147.887 Y101.112 E14.90794
G1 X147.879 Y101.831 E14.93186
G1 X147.835 Y102.559 E14.95611
G1 X147.788 Y103.073 E14.97328
G1 X147.69 Y103.83 E14.99867
G1 X147.18 Y106.887 E15.10175
G1 X146.828 Y109.42 E15.18681
G1 X146.548 Y111.956 E15.27167
G1 X146.34 Y114.483 E15.356
G1 X146.209 Y116.953 E15.43827
G1 X146.144 Y119.522 E15.52374
G1 X146.153 Y122.032 E15.60723
G1 X146.232 Y124.55 E15.69102
G1 X146.485 Y128.564 E15.82479
G1 X146.514 Y129.416 E15.85314
G1 X146.514 Y130.308 E15.88281
G1 X146.5 Y130.783 E15.89861
G1 X146.445 Y131.715 E15.92967
G1 X146.382 Y132.419 E15.95318
G1 X146.284 Y133.271 E15.9817
G1 X146.215 Y133.749 E15.99776
G1 X146.088 Y134.47 E16.02211
G1 X145.899 Y135.387 E16.05325
G1 X145.665 Y136.354 E16.08634
G1 X145.551 Y136.771 E16.10072
G1 X145.329 Y137.501 E16.1261
G1 X145.005 Y138.455 E16.15961
G1 X144.589 Y139.538 E16.1982
G1 X144.283 Y140.238 E16.22361
G1 X143.889 Y141.072 E16.25429
G1 X143.64 Y141.566 E16.27269
G1 X143.331 Y142.14 E16.29437
G1 X142.793 Y143.066 E16.32999
G1 X142.564 Y143.435 E16.34443
G1 X142.136 Y144.083 E16.37026
G1 X141.548 Y144.91 E16.40401
G1 X141.053 Y145.558 E16.43113
G1 X140.508 Y146.227 E16.45983
G1 X139.724 Y147.109 E16.49908
G1 X139.326 Y147.527 E16.51828
G1 X138.705 Y148.142 E16.54735
G1 X138.335 Y148.49 E16.56424
G1 X137.587 Y149.153 E16.59749
G1 X137.046 Y149.602 E16.62087
G1 X136.675 Y149.895 E16.63659
G1 X135.959 Y150.428 E16.66628
G1 X135.381 Y150.832 E16.68974
G1 X134.944 Y151.123 E16.7072
G1 X133.968 Y151.724 E16.74532
G1 X133.342 Y152.08 E16.76927
G1 X132.787 Y152.375 E16.79018
G1 X131.991 Y152.767 E16.81969
G1 X131.486 Y152.998 E16.83816
G1 X130.687 Y153.339 E16.86705
G1 X130.114 Y153.564 E16.88753
G1 X129.308 Y153.854 E16.91602
G1 X128.542 Y154.105 E16.94283
G1 X127.7 Y154.346 E16.97196
G1 X127.196 Y154.473 E16.98925
G1 X126.333 Y154.669 E17.01868
G1 X125.509 Y154.83 E17.04661
G1 X124.445 Y154.991 E17.0824
G1 X124.032 Y155.041 E17.09623
G1 X122.996 Y155.142 E17.13085
G1 X122.566 Y155.172 E17.14519
G1 X121.991 Y155.195 E17.16433
G1 X121.17 Y155.205 E17.19164
G1 X120.034 Y155.202 E17.22942
G1 X117.866 Y155.214 E17.30153
G1 X117.522 Y155.201 E17.31298
G1 X103.619 Y155.207 E17.7754
G1 X102.402 Y155.191 E17.81588
G1 X101.032 Y155.123 E17.8615
G1 X100.434 Y155.072 E17.88146
G1 X99.861 Y155.007 E17.90064
G1 X98.875 Y154.869 E17.93376
G1 X98.341 Y154.779 E17.95177
G1 X97.471 Y154.602 E17.9813
G1 X96.865 Y154.462 E18.00198
G1 X96.308 Y154.317 E18.02113
G1 X95.266 Y154.009 E18.05727
G1 X94.569 Y153.78 E18.08167
G1 X94.115 Y153.619 E18.09769
G1 X93.466 Y153.366 E18.12086
G1 X92.841 Y153.107 E18.14336
G1 X92.303 Y152.865 E18.16298
G1 X91.334 Y152.392 E18.19884
G1 X90.823 Y152.125 E18.21802
G1 X90.329 Y151.85 E18.23683
G1 X89.828 Y151.553 E18.2562
G1 X88.981 Y151.022 E18.28945
G1 X88.49 Y150.691 E18.30914
G1 X87.789 Y150.186 E18.33788
G1 X86.784 Y149.418 E18.37995
G1 X82.165 Y145.697 E18.57722
G1 X80.823 Y144.573 E18.63545
G1 X80.146 Y143.97 E18.6656
G1 X79.766 Y143.608 E18.68306
G1 X79.262 Y143.101 E18.70683
G1 X78.82 Y142.636 E18.72817
G1 X78.417 Y142.186 E18.74826
G1 X77.809 Y141.463 E18.77968
G1 X77.44 Y141.001 E18.79935
G1 X77.153 Y140.622 E18.81516
G1 X76.672 Y139.955 E18.84251
G1 X76.284 Y139.386 E18.86542
G1 X75.958 Y138.876 E18.88555
G1 X75.495 Y138.098 E18.91566
G1 X75.153 Y137.487 E18.93895
G1 X74.891 Y136.988 E18.9577
G1 X74.57 Y136.327 E18.98214
G1 X74.29 Y135.72 E19.00437
G1 X74.093 Y135.265 E19.02086
G1 X73.772 Y134.454 E19.04987
G1 X73.537 Y133.814 E19.07255
G1 X73.353 Y133.265 E19.09181
G1 X73.087 Y132.378 E19.12261
G1 X72.819 Y131.359 E19.15765
G1 X72.633 Y130.509 E19.18659
G1 X72.485 Y129.729 E19.213
G1 X72.398 Y129.195 E19.23099
G1 X72.306 Y128.495 E19.25447
G1 X72.232 Y127.829 E19.27676
G1 X72.183 Y127.242 E19.29635
G1 X72.146 Y126.431 E19.32335
G1 X72.111 Y124.515 E19.38709
G1 X72.114 Y73.624 E21.07973
G1 X72.154 Y71.75 E21.14208
G1 X72.192 Y70.974 E21.16792
G1 X72.235 Y70.457 E21.18517
G1 X72.337 Y69.558 E21.21526
