;FLAVOR:Marlin
;TIME:7901
;Filament used: 5.75967m
;Layer height: 0.2
;MINX:71.862
;MINY:55.575
;MINZ:0.2
;MAXX:148.431
;MAXY:164.425
;MAXZ:10.4
;TARGET_MACHINE.NAME:Creality Ender-3 Pro
;Generated with Cura_SteamEngine 5.9.0
M82 ;absolute extrusion mode
; Ender 3 Custom Start G-code
G92 E0 ; Reset Extruder
G28 ; Home all axes
G1 Z5.0 F3000 ; Move Z Axis up a bit during heating to not damage bed
M104 S175 ; Start heating up the nozzle most of the way
M190 S60 ; Start heating the bed, wait until target temperature reached
M109 S205.0 ; Finish heating the nozzle
G1 Z2.0 F3000 ; Move Z Axis up little to prevent scratching of Heat Bed
G1 X0.1 Y20 Z0.3 F5000.0 ; Move to start position
G1 X0.1 Y200.0 Z0.3 F1500.0 E15 ; Draw the first line
G1 X0.4 Y200.0 Z0.3 F5000.0 ; Move to side a little
G1 X0.4 Y20 Z0.3 F1500.0 E30 ; Draw the second line
G92 E0 ; Reset Extruder
G1 Z2.0 F3000 ; Move Z Axis up little to prevent scratching of Heat Bed
G1 X5 Y20 Z0.3 F5000.0 ; Move over to prevent blob squish
G92 E0
G92 E0
G1 F1500 E-6.5
;LAYER_COUNT:52
;LAYER:0
M107
G0 F6000 X73.107 Y136.721 Z0.2
;TYPE:SKIRT
G1 F1500 E0
G1 F1200 X73.128 Y135.378 E0.04467
G1 X73.321 Y132.375 E0.14476
G1 X73.407 Y129.843 E0.22902
G1 X73.42 Y127.3 E0.3136
G1 X73.364 Y124.821 E0.39608
G1 X73.235 Y122.304 E0.4799
G1 X73.035 Y119.782 E0.56405
G1 X72.762 Y117.268 E0.64816
G1 X72.423 Y114.78 E0.73167
G1 X72.19 Y113.348 E0.77993
G1 X71.968 Y111.753 E0.83349
G1 X71.868 Y110.371 E0.87957
G1 X71.862 Y109.61 E0.90489
G1 X71.888 Y108.785 E0.93234
G1 X71.95 Y108.067 E0.95631
G1 X72.07 Y107.12 E0.98806
G1 X72.434 Y104.848 E1.06459
G1 X72.765 Y102.336 E1.14886
G1 X73.023 Y99.841 E1.23229
G1 X73.211 Y97.309 E1.31673
G1 X73.327 Y94.791 E1.40057
G1 X73.372 Y92.283 E1.484
G1 X73.346 Y89.775 E1.56742
G1 X73.248 Y87.304 E1.64967
G1 X72.939 Y83.091 E1.79017
G1 X72.915 Y82.581 E1.80716
G1 X72.893 Y81.676 E1.83726
G1 X72.896 Y81.051 E1.85805
G1 X72.925 Y80.237 E1.88514
G1 X72.956 Y79.688 E1.90343
G1 X73.027 Y78.873 E1.93064
G1 X73.109 Y78.165 E1.95435
G1 X73.295 Y76.976 E1.99437
G1 X73.412 Y76.365 E2.01507
G1 X73.61 Y75.473 E2.04546
G1 X73.768 Y74.853 E2.06674
G1 X74.004 Y74.033 E2.09512
G1 X74.176 Y73.491 E2.11403
G1 X74.425 Y72.768 E2.13946
G1 X74.711 Y72.014 E2.16628
G1 X75.209 Y70.851 E2.20836
G1 X75.494 Y70.249 E2.23052
G1 X75.947 Y69.363 E2.26361
G1 X76.269 Y68.783 E2.28568
G1 X76.722 Y68.02 E2.31519
G1 X77.073 Y67.467 E2.33698
G1 X77.587 Y66.712 E2.36735
G1 X77.949 Y66.214 E2.38783
G1 X78.44 Y65.575 E2.41463
G1 X78.769 Y65.169 E2.43201
G1 X79.292 Y64.555 E2.45884
G1 X79.804 Y63.988 E2.48425
G1 X80.693 Y63.087 E2.52635
G1 X81.117 Y62.686 E2.54576
G1 X82.013 Y61.893 E2.58556
G1 X82.537 Y61.462 E2.60812
G1 X83.053 Y61.06 E2.62988
G1 X83.547 Y60.698 E2.65025
G1 X84.42 Y60.098 E2.68548
G1 X85.038 Y59.704 E2.70986
G1 X85.861 Y59.216 E2.74168
G1 X86.371 Y58.934 E2.76106
G1 X87.241 Y58.485 E2.79363
G1 X87.885 Y58.183 E2.81728
G1 X88.598 Y57.87 E2.84318
G1 X89.151 Y57.647 E2.86302
G1 X90.216 Y57.253 E2.90078
G1 X93.182 Y56.246 E3.00496
G1 X94.135 Y55.972 E3.03794
G1 X95.092 Y55.786 E3.07037
G1 X96.033 Y55.688 E3.10184
G1 X97.143 Y55.625 E3.13882
G1 X98.792 Y55.575 E3.19369
G1 X121.591 Y55.575 E3.95198
G1 X123.516 Y55.61 E4.01602
G1 X124.268 Y55.644 E4.04106
G1 X124.886 Y55.697 E4.06169
G1 X126.011 Y55.828 E4.09936
G1 X126.951 Y55.965 E4.13095
G1 X127.592 Y56.072 E4.15257
G1 X128.795 Y56.345 E4.1936
G1 X129.754 Y56.62 E4.22678
G1 X130.851 Y56.968 E4.26506
G1 X131.35 Y57.142 E4.28263
G1 X131.98 Y57.384 E4.30508
G1 X132.64 Y57.653 E4.32879
G1 X133.156 Y57.879 E4.34752
G1 X133.986 Y58.272 E4.37807
G1 X134.598 Y58.581 E4.40087
G1 X135.111 Y58.858 E4.42026
G1 X135.867 Y59.299 E4.44937
G1 X136.451 Y59.657 E4.47215
G1 X136.958 Y59.989 E4.49231
G1 X137.44 Y60.324 E4.51183
G1 X138.205 Y60.883 E4.54335
G1 X138.662 Y61.238 E4.56259
G1 X139.331 Y61.793 E4.5915
G1 X139.891 Y62.282 E4.61623
G1 X140.326 Y62.683 E4.63591
G1 X140.919 Y63.265 E4.66354
G1 X141.375 Y63.734 E4.6853
G1 X141.786 Y64.183 E4.70555
G1 X142.388 Y64.884 E4.73628
G1 X143.186 Y65.866 E4.77837
G1 X143.529 Y66.313 E4.79711
G1 X144.042 Y67.044 E4.82681
G1 X144.514 Y67.78 E4.85589
G1 X144.928 Y68.482 E4.883
G1 X145.329 Y69.224 E4.91105
G1 X145.724 Y69.999 E4.93998
G1 X146.117 Y70.824 E4.97037
G1 X146.339 Y71.329 E4.98872
G1 X146.707 Y72.246 E5.02159
G1 X146.981 Y72.987 E5.04786
G1 X147.14 Y73.453 E5.06424
G1 X147.363 Y74.18 E5.08953
G1 X147.542 Y74.812 E5.11138
G1 X147.688 Y75.391 E5.13124
G1 X147.917 Y76.442 E5.16701
G1 X148.047 Y77.129 E5.19027
G1 X148.133 Y77.657 E5.20806
G1 X148.228 Y78.374 E5.23212
G1 X148.304 Y79.066 E5.25527
G1 X148.346 Y79.586 E5.27262
G1 X148.397 Y80.503 E5.30317
G1 X148.431 Y81.881 E5.34902
G1 X148.428 Y133.389 E7.06218
G1 X148.395 Y135.142 E7.1205
G1 X148.358 Y135.951 E7.14743
G1 X148.307 Y136.551 E7.16746
G1 X148.205 Y137.446 E7.19742
G1 X148.119 Y138.08 E7.2187
G1 X148.021 Y138.674 E7.23872
G1 X147.905 Y139.264 E7.25872
G1 X147.717 Y140.123 E7.28797
G1 X147.601 Y140.597 E7.3042
G1 X147.371 Y141.427 E7.33285
G1 X147.161 Y142.116 E7.3568
G1 X146.969 Y142.686 E7.37681
G1 X146.658 Y143.52 E7.40641
G1 X146.376 Y144.223 E7.43161
G1 X146.148 Y144.75 E7.4507
G1 X145.836 Y145.412 E7.47505
G1 X145.392 Y146.309 E7.50833
G1 X144.28 Y148.633 E7.59402
G1 X143.264 Y150.922 E7.67732
G1 X142.605 Y152.537 E7.73533
G1 X142.263 Y153.346 E7.76455
G1 X141.994 Y153.931 E7.78596
G1 X141.72 Y154.483 E7.80646
G1 X141.261 Y155.31 E7.83792
G1 X140.475 Y156.436 E7.88359
G1 X140.217 Y156.758 E7.89731
G1 X139.555 Y157.51 E7.93064
G1 X138.689 Y158.317 E7.97001
G1 X138.216 Y158.71 E7.99046
G1 X137.392 Y159.356 E8.02529
G1 X136.626 Y159.898 E8.0565
G1 X135.783 Y160.39 E8.08896
G1 X134.699 Y160.889 E8.12865
G1 X134.07 Y161.128 E8.15103
G1 X133.623 Y161.282 E8.16676
G1 X132.698 Y161.557 E8.19885
G1 X132.053 Y161.696 E8.2208
G1 X130.294 Y162.024 E8.28031
G1 X127.778 Y162.551 E8.36581
G1 X125.417 Y163.114 E8.44654
G1 X125.138 Y163.192 E8.45617
G1 X123.267 Y163.663 E8.52034
G1 X122.328 Y163.874 E8.55235
G1 X121.475 Y164.039 E8.58125
G1 X120.573 Y164.193 E8.61169
G1 X119.409 Y164.326 E8.65065
G1 X118.364 Y164.382 E8.68546
G1 X116.302 Y164.423 E8.75406
G1 X99.388 Y164.425 E9.31662
G1 X98.064 Y164.403 E9.36066
G1 X97.23 Y164.366 E9.38843
G1 X96.369 Y164.315 E9.41711
G1 X95.435 Y164.216 E9.44835
G1 X94.448 Y164.02 E9.48182
G1 X93.617 Y163.782 E9.51057
G1 X91.634 Y163.125 E9.58005
G1 X90.203 Y162.628 E9.63044
G1 X89.036 Y162.175 E9.67207
G1 X88.526 Y161.956 E9.69053
G1 X87.762 Y161.604 E9.71851
G1 X87.219 Y161.335 E9.73867
G1 X86.429 Y160.915 E9.76842
G1 X85.911 Y160.621 E9.78823
G1 X85.25 Y160.221 E9.81393
G1 X84.767 Y159.909 E9.83306
G1 X84.069 Y159.433 E9.86116
G1 X83.611 Y159.103 E9.87993
G1 X82.887 Y158.545 E9.91033
G1 X82.117 Y157.908 E9.94357
G1 X81.317 Y157.186 E9.97941
G1 X80.664 Y156.551 E10.00971
G1 X80.281 Y156.159 E10.02794
G1 X79.623 Y155.436 E10.06045
G1 X79.064 Y154.777 E10.08919
G1 X78.71 Y154.34 E10.1079
G1 X77.983 Y153.374 E10.14811
G1 X77.569 Y152.771 E10.17244
G1 X77.003 Y151.885 E10.20741
G1 X76.396 Y150.845 E10.24746
G1 X76.004 Y150.098 E10.27552
G1 X75.674 Y149.424 E10.30048
G1 X75.447 Y148.932 E10.3185
G1 X75.042 Y147.965 E10.35337
G1 X74.794 Y147.322 E10.37629
G1 X74.629 Y146.857 E10.3927
G1 X74.398 Y146.149 E10.41747
G1 X74.222 Y145.564 E10.43779
G1 X74.016 Y144.806 E10.46391
G1 X73.81 Y143.931 E10.49381
G1 X73.706 Y143.409 E10.51152
G1 X73.501 Y142.213 E10.55188
G1 X73.38 Y141.283 E10.58307
G1 X73.307 Y140.438 E10.61128
G1 X73.193 Y138.57 E10.67352
G1 X73.107 Y136.721 E10.73509
G0 F6000 X73.507 Y136.702
G1 F1200 X73.527 Y135.404 E10.77826
G1 X73.721 Y132.389 E10.87875
G1 X73.807 Y129.857 E10.96301
G1 X73.82 Y127.302 E11.04799
G1 X73.764 Y124.812 E11.13083
G1 X73.634 Y122.272 E11.21542
G1 X73.434 Y119.75 E11.29957
G1 X73.16 Y117.225 E11.38404
G1 X72.818 Y114.716 E11.46827
G1 X72.586 Y113.293 E11.51622
G1 X72.367 Y111.724 E11.56891
G1 X72.268 Y110.368 E11.61413
G1 X72.262 Y109.622 E11.63895
G1 X72.287 Y108.819 E11.66567
G1 X72.347 Y108.117 E11.6891
G1 X72.465 Y107.183 E11.72041
G1 X72.831 Y104.9 E11.79731
G1 X73.162 Y102.388 E11.88159
G1 X73.421 Y99.882 E11.96538
G1 X73.61 Y97.339 E12.05019
G1 X73.727 Y94.809 E12.13443
G1 X73.772 Y92.29 E12.21823
G1 X73.746 Y89.771 E12.30201
G1 X73.648 Y87.288 E12.38466
G1 X73.339 Y83.072 E12.52526
G1 X73.315 Y82.571 E12.54195
G1 X73.293 Y81.678 E12.57166
G1 X73.296 Y81.065 E12.59205
G1 X73.324 Y80.26 E12.61884
G1 X73.355 Y79.722 E12.63676
G1 X73.424 Y78.919 E12.66357
G1 X73.504 Y78.227 E12.68674
G1 X73.688 Y77.051 E12.72632
G1 X73.803 Y76.452 E12.74661
G1 X73.998 Y75.572 E12.77659
G1 X74.153 Y74.963 E12.79749
G1 X74.385 Y74.154 E12.82548
G1 X74.554 Y73.621 E12.84408
G1 X74.799 Y72.91 E12.86909
G1 X75.079 Y72.171 E12.89538
G1 X75.57 Y71.022 E12.93694
G1 X75.85 Y70.431 E12.95869
G1 X76.297 Y69.557 E12.99134
G1 X76.613 Y68.987 E13.01302
G1 X77.06 Y68.234 E13.04214
G1 X77.404 Y67.692 E13.06349
G1 X77.911 Y66.947 E13.09346
G1 X78.266 Y66.458 E13.11356
G1 X78.751 Y65.827 E13.14003
G1 X79.074 Y65.428 E13.15711
G1 X79.589 Y64.823 E13.18353
G1 X80.089 Y64.269 E13.20835
G1 X80.968 Y63.378 E13.24998
G1 X81.392 Y62.977 E13.26939
G1 X82.267 Y62.202 E13.30827
G1 X82.783 Y61.778 E13.33048
G1 X83.29 Y61.383 E13.35186
G1 X83.774 Y61.028 E13.37182
G1 X84.647 Y60.428 E13.40706
G1 X85.242 Y60.048 E13.43054
G1 X86.055 Y59.566 E13.46197
G1 X86.555 Y59.289 E13.48098
G1 X87.411 Y58.847 E13.51303
G1 X88.046 Y58.549 E13.53636
G1 X88.748 Y58.241 E13.56185
G1 X89.29 Y58.022 E13.5813
G1 X90.345 Y57.632 E13.61871
G1 X93.311 Y56.625 E13.72289
G1 X94.212 Y56.365 E13.75408
G1 X95.134 Y56.184 E13.78533
G1 X96.056 Y56.087 E13.81616
G1 X97.155 Y56.025 E13.85277
G1 X98.804 Y55.975 E13.90765
G1 X121.584 Y55.975 E14.66531
G1 X123.498 Y56.01 E14.72898
G1 X124.234 Y56.043 E14.75349
G1 X124.84 Y56.094 E14.77371
G1 X125.953 Y56.224 E14.81098
G1 X126.885 Y56.36 E14.84231
G1 X127.526 Y56.467 E14.86392
G1 X128.706 Y56.735 E14.90417
G1 X129.633 Y57.001 E14.93625
G1 X130.719 Y57.345 E14.97414
G1 X131.207 Y57.516 E14.99134
G1 X131.829 Y57.754 E15.01349
G1 X132.48 Y58.019 E15.03686
G1 X132.985 Y58.24 E15.0552
G1 X133.806 Y58.629 E15.08541
G1 X134.408 Y58.933 E15.10785
G1 X134.91 Y59.204 E15.12682
G1 X135.658 Y59.64 E15.15562
G1 X136.232 Y59.992 E15.17801
G1 X136.73 Y60.318 E15.19781
G1 X137.204 Y60.647 E15.217
G1 X137.96 Y61.199 E15.24813
G1 X138.407 Y61.546 E15.26695
G1 X139.068 Y62.094 E15.29551
G1 X139.62 Y62.576 E15.31989
G1 X140.046 Y62.969 E15.33916
G1 X140.632 Y63.544 E15.36647
G1 X141.08 Y64.004 E15.38783
G1 X141.483 Y64.444 E15.40767
G1 X142.078 Y65.136 E15.43802
G1 X142.869 Y66.109 E15.47973
G1 X143.202 Y66.543 E15.49793
G1 X143.705 Y67.26 E15.52706
G1 X144.177 Y67.996 E15.55614
G1 X144.576 Y68.672 E15.58225
G1 X144.973 Y69.406 E15.61
G1 X145.363 Y70.171 E15.63856
G1 X145.751 Y70.985 E15.66855
G1 X145.968 Y71.478 E15.68647
G1 X146.332 Y72.384 E15.71894
G1 X146.602 Y73.116 E15.74489
G1 X146.761 Y73.582 E15.76127
G1 X146.978 Y74.289 E15.78587
G1 X147.154 Y74.91 E15.80733
G1 X147.297 Y75.476 E15.82675
G1 X147.524 Y76.516 E15.86216
G1 X147.652 Y77.193 E15.88507
G1 X147.736 Y77.71 E15.90249
G1 X147.83 Y78.418 E15.92625
G1 X147.905 Y79.099 E15.94904
G1 X147.947 Y79.608 E15.96602
G1 X147.997 Y80.513 E15.99617
G1 X148.031 Y81.881 E16.04168
G1 X148.028 Y133.381 E17.75458
G1 X147.995 Y135.124 E17.81256
G1 X147.959 Y135.918 E17.839
G1 X147.91 Y136.506 E17.85862
G1 X147.809 Y137.392 E17.88828
G1 X147.724 Y138.015 E17.90919
G1 X147.628 Y138.597 E17.92881
G1 X147.514 Y139.178 E17.94851
G1 X147.328 Y140.028 E17.97745
G1 X147.212 Y140.502 E17.99368
G1 X146.988 Y141.311 E18.0216
G1 X146.782 Y141.988 E18.04513
G1 X146.594 Y142.546 E18.06472
G1 X146.287 Y143.371 E18.094
G1 X146.009 Y144.064 E18.11883
G1 X145.786 Y144.579 E18.1375
G1 X145.474 Y145.241 E18.16184
G1 X145.031 Y146.136 E18.19505
G1 X143.919 Y148.46 E18.28074
G1 X142.898 Y150.76 E18.36444
G1 X142.236 Y152.382 E18.42271
G1 X141.9 Y153.179 E18.45147
G1 X141.636 Y153.753 E18.47249
G1 X141.37 Y154.289 E18.49239
G1 X140.911 Y155.116 E18.52385
G1 X140.162 Y156.186 E18.56729
G1 X139.916 Y156.494 E18.5804
G1 X139.282 Y157.217 E18.61238
G1 X138.416 Y158.024 E18.65175
G1 X137.969 Y158.395 E18.67108
G1 X137.161 Y159.029 E18.70523
G1 X136.395 Y159.571 E18.73644
G1 X135.615 Y160.027 E18.7665
G1 X134.557 Y160.515 E18.80525
G1 X133.939 Y160.75 E18.82724
G1 X133.509 Y160.899 E18.84237
G1 X132.614 Y161.166 E18.87344
G1 X131.98 Y161.303 E18.89501
G1 X130.212 Y161.632 E18.95483
G1 X127.696 Y162.159 E19.04032
G1 X125.319 Y162.726 E19.1216
G1 X125.04 Y162.804 E19.13124
G1 X123.18 Y163.273 E19.19504
G1 X122.252 Y163.481 E19.22667
G1 X121.407 Y163.645 E19.2553
G1 X120.527 Y163.796 E19.28499
G1 X119.388 Y163.927 E19.32313
G1 X118.356 Y163.982 E19.3575
G1 X116.298 Y164.024 E19.42596
G1 X99.395 Y164.025 E19.98816
G1 X98.081 Y164.003 E20.03187
G1 X97.254 Y163.967 E20.0594
G1 X96.411 Y163.917 E20.08749
G1 X95.477 Y163.818 E20.11873
G1 X94.558 Y163.636 E20.14989
G1 X93.743 Y163.402 E20.17809
G1 X91.765 Y162.747 E20.24739
G1 X90.348 Y162.255 E20.29728
G1 X89.194 Y161.807 E20.33846
G1 X88.684 Y161.588 E20.35692
G1 X87.94 Y161.246 E20.38415
G1 X87.407 Y160.982 E20.40393
G1 X86.626 Y160.567 E20.43335
G1 X86.118 Y160.279 E20.45277
G1 X85.467 Y159.885 E20.47808
G1 X84.992 Y159.578 E20.49689
G1 X84.303 Y159.109 E20.52461
G1 X83.855 Y158.786 E20.54298
G1 X83.142 Y158.237 E20.57291
G1 X82.385 Y157.611 E20.60558
G1 X81.596 Y156.899 E20.64093
G1 X80.95 Y156.272 E20.67087
G1 X80.577 Y155.89 E20.68863
G1 X79.928 Y155.177 E20.7207
G1 X79.375 Y154.526 E20.74911
G1 X79.03 Y154.099 E20.76737
G1 X78.303 Y153.133 E20.80758
G1 X77.906 Y152.555 E20.8309
G1 X77.348 Y151.683 E20.86533
G1 X76.75 Y150.659 E20.90478
G1 X76.363 Y149.922 E20.93246
G1 X76.037 Y149.256 E20.95712
G1 X75.816 Y148.777 E20.97467
G1 X75.415 Y147.821 E21.00915
G1 X75.171 Y147.188 E21.03171
G1 X75.009 Y146.733 E21.04778
G1 X74.781 Y146.034 E21.07223
G1 X74.608 Y145.459 E21.0922
G1 X74.405 Y144.714 E21.11789
G1 X74.202 Y143.853 E21.14731
G1 X74.1 Y143.342 E21.16464
G1 X73.898 Y142.161 E21.20449
G1 X73.777 Y141.231 E21.23568
G1 X73.706 Y140.414 E21.26296
G1 X73.593 Y138.551 E21.32504
G1 X73.507 Y136.702 E21.3866
G0 F6000 X73.907 Y136.683
G1 F1200 X73.926 Y135.43 E21.42828
G1 X74.121 Y132.403 E21.52917
G1 X74.207 Y129.871 E21.61343
G1 X74.22 Y127.304 E21.69881
G1 X74.164 Y124.803 E21.78202
G1 X74.033 Y122.24 E21.86737
G1 X73.833 Y119.718 E21.95152
G1 X73.558 Y117.182 E22.03636
G1 X73.213 Y114.652 E22.12129
G1 X72.982 Y113.238 E22.16894
G1 X72.766 Y111.695 E22.22076
G1 X72.668 Y110.365 E22.26512
G1 X72.662 Y109.634 E22.28943
G1 X72.686 Y108.853 E22.31542
G1 X72.744 Y108.167 E22.33832
G1 X72.86 Y107.246 E22.36919
G1 X73.228 Y104.952 E22.44647
G1 X73.559 Y102.44 E22.53074
G1 X73.819 Y99.923 E22.6149
G1 X74.009 Y97.369 E22.70008
G1 X74.127 Y94.828 E22.78469
G1 X74.172 Y92.297 E22.86888
G1 X74.146 Y89.767 E22.95303
G1 X74.048 Y87.272 E23.03608
G1 X73.739 Y83.052 E23.17681
G1 X73.715 Y82.561 E23.19316
G1 X73.693 Y81.68 E23.22248
G1 X73.696 Y81.079 E23.24247
G1 X73.723 Y80.283 E23.26896
G1 X73.754 Y79.756 E23.28651
G1 X73.823 Y78.953 E23.31332
G1 X73.899 Y78.289 E23.33555
G1 X74.081 Y77.126 E23.3747
G1 X74.193 Y76.539 E23.39458
G1 X74.386 Y75.671 E23.42415
G1 X74.538 Y75.073 E23.44467
G1 X74.77 Y74.264 E23.47267
G1 X74.932 Y73.751 E23.49056
G1 X75.173 Y73.052 E23.51515
G1 X75.447 Y72.328 E23.5409
G1 X75.932 Y71.193 E23.58195
G1 X76.206 Y70.613 E23.60329
G1 X76.647 Y69.751 E23.63549
G1 X76.957 Y69.191 E23.65678
G1 X77.398 Y68.448 E23.68552
G1 X77.735 Y67.917 E23.70643
G1 X78.235 Y67.182 E23.736
G1 X78.583 Y66.702 E23.75572
G1 X79.062 Y66.079 E23.78186
G1 X79.379 Y65.687 E23.79863
G1 X79.886 Y65.091 E23.82465
G1 X80.374 Y64.55 E23.84888
G1 X81.243 Y63.668 E23.89006
G1 X81.657 Y63.276 E23.90903
G1 X82.52 Y62.511 E23.94739
G1 X83.029 Y62.094 E23.96927
G1 X83.527 Y61.706 E23.99027
G1 X84.011 Y61.351 E24.01023
G1 X84.862 Y60.765 E24.0446
G1 X85.446 Y60.392 E24.06765
G1 X86.249 Y59.916 E24.09869
G1 X86.738 Y59.644 E24.1173
G1 X87.581 Y59.209 E24.14886
